X:122
%%etbk:tnset id:43,pos:2,rep:3x,ant:
%%etbk:wsite http://www.thesession.org/tunes/display/2125
%%etbk:wsite http://www.youtube.com/watch?v=fSUzhNJLaB0
%%etbk:video src:ytube,cde:hfIJ54ugWvI,desc:first tune
%%etbk:pldat 2016-09-17T15:49,2016-09-16T15:39,2016-09-13T15:43,2016-09-12T18:26,2016-08-05T17:19,2016-08-02T15:13,2016-07-31T16:36,2016-07-28T18:18,2016-07-26T16:03,2014-11-24T16:52,2014-09-30T15:18,2014-05-06T18:11,2014-05-02T18:33,2014-02-05T16:56,2013-11-25T19:35,2013-11-20T17:41
T: Paddy Kelly's
Z: Piano Box Version by Martin Fleischmann
H: Created 2013-02-19 /  Last Modified 2013-11-20
M: 4/4
L: 1/8
R: reel
K: Gmix
!3!Bc |: "G"!5!d!1!G!2!G!1!G !5!dG!3!B!5!d | "F"!4!c!1!FFF !4!c!1!F!2!A!4!c | "G"!5!d!1!G!2!GG !1!D!2!G!1!G!2!A | !3!BdcA G2Bc |
"G"!5!d!1!G!2!G!1!G !5!dG!3!B!5!d | "F"!4!c!1!FFF !4!c!1!F!2!A!4!c | "G"!5!d!1!G!2!GG !1!D!2!G!1!G!2!A | !3!BdcA G2 :|
!1!B!2!c |:"G" !3!d!5!gg!4!^f !5!g2!3!d!4!e | "F"!5!=f!3!d!2!c!1!B !2!A!1!F!2!A!4!c | "G"!1!d!3!g!3!g^f !3!g3!2!f | "D"!1!de^fg !5!a2gf |
"G"!1!d2!5!g!4!^f !5!g2!3!d!4!e | "F"!5!=f!3!d!2!c!1!B !2!A!1!F!2!A!4!c  | "G"!5!d!1!G!2!GG !1!D!2!G!1!G!2!A | !3!BdcA G2 :|


